X:21
T:Honey Moon. 2voices.AJH.021
M:2/4
L:1/8
Q:1/4=140
S:A.J.Hughes MS
O:England
A:North Shropshire
Z:Neil Brookes 2006
K:D
[V:1] |: Addd | dffa | gfed | ce d/c/B/A/ | Addd | dffa | gfef | d2d2 😐
[V:2] |: FFFF | AddA | BAGF | E3z | FFFF | AddA | EFGE | F2F2 😐
%
[V:1] |: dAA2 | B>c e/d/c/B/ | A>F G/F/E/D/ | CEEz | dAAA | B>cde | f>gef | d2d2 😐
[V:2] |: FFFF | GA GE | F>A Bd | cccz | FFFF | G>ABc | d>BAG | F2F2 😐
%
[V:1] |: faa2 | gbb2 | af g/f/e/d/ | ceez | faa2 | gbb2 | afef | d2d2 😐
[V:2] |: dff2 |egg2 | fd cB | cccz | dff2 | egg2 | fdcd | [f2F2][f2F2] 😐

